public/files/perm/themes/base/zen/img/teacher_hat.svg

<svg fill="none" height="24" viewBox="0 0 24 24" width="24" xmlns="http://www.w3.org/2000/svg"><path d="m5 10.0001v6.0111c0 .359 0 .5384.05465.6969.04834.1401.12722.2678.23093.3736.11729.1198.27782.2001.59888.3606l5.40004 2.7c.2623.1312.3935.1968.5311.2226.1219.0228.2469.0228.3688 0 .1376-.0258.2688-.0914.5311-.2226l5.4-2.7c.3211-.1605.4816-.2408.5989-.3606.1037-.1058.1826-.2335.2309-.3736.0547-.1585.0547-.3379.0547-.6969v-6.0111m-17-1.50004 9.6422-4.82111c.1312-.06559.1968-.09839.2656-.11129.0609-.01144.1235-.01144.1844 0 .0688.0129.1344.0457.2656.11129l9.6422 4.82111-9.6422 4.82114c-.1312.0656-.1968.0984-.2656.1113-.0609.0114-.1235.0114-.1844 0-.0688-.0129-.1344-.0457-.2656-.1113z" stroke="#fff" stroke-linecap="round" stroke-linejoin="round" stroke-width="2"/></svg>

<svg width="24" height="24" viewBox="0 0 24 24" fill="none" xmlns="http://www.w3.org/2000/svg">
<path d="M5 10.0001V16.0112C5 16.3702 5 16.5496 5.05465 16.7081C5.10299 16.8482 5.18187 16.9759 5.28558 17.0817C5.40287 17.2015 5.5634 17.2818 5.88446 17.4423L11.2845 20.1423C11.5468 20.2735 11.678 20.3391 11.8156 20.3649C11.9375 20.3877 12.0625 20.3877 12.1844 20.3649C12.322 20.3391 12.4532 20.2735 12.7155 20.1423L18.1155 17.4423C18.4366 17.2818 18.5971 17.2015 18.7144 17.0817C18.8181 16.9759 18.897 16.8482 18.9453 16.7081C19 16.5496 19 16.3702 19 16.0112V10.0001M2 8.50006L11.6422 3.67895C11.7734 3.61336 11.839 3.58056 11.9078 3.56766C11.9687 3.55622 12.0313 3.55622 12.0922 3.56766C12.161 3.58056 12.2266 3.61336 12.3578 3.67895L22 8.50006L12.3578 13.3212C12.2266 13.3868 12.161 13.4196 12.0922 13.4325C12.0313 13.4439 11.9687 13.4439 11.9078 13.4325C11.839 13.4196 11.7734 13.3868 11.6422 13.3212L2 8.50006Z" stroke="white" stroke-width="2" stroke-linecap="round" stroke-linejoin="round"/>
</svg>
